X:993
T:Wild Mountain Thyme #2, The
C:Joe Buchanan's Scottish Tome - Page 578.3
I:578 3
Z:Carl Allison
R:Waltz
L:1/4
M:3/4
K:A
A/F/ | (A2 c) | A3 | (A c e) | f3 | (f2 e) | (c e2) | e (c e) |
f3 | (d2 c) | B A2 | A (B c) | (d2 c) | (B2 A) | (F A2) | (A2 F) | 
E3 | (F A2) | A3 | (A c e) | f3 | (f2 e) | c e2- | e2 (c/e/) | 
f3 | (e2 c) | B A2 | A (B c) | (d2 c) | (B2 A) | F A2 | (A2 F) | 
E3 | F A2 | A3 | !crescendo(!A A F | E3!crescendo)! | \
F !diminuendo(!A2 | A c e | ^f a b!diminuendo)! | c'2 |]

